!!!OTL: St. Georg.
!!!ARE: Europa, Mitteleuropa, Deutschland
!!!SCT: A0612
!!!TXL: @@GMH
!!!YEM: Copyright 1995, estate of Helmut Schaffrath.
**kern	**text
*M4/2	*
*met(c|)	*
*k[b-]	*
*g:aeo	*
=1	=1
!LO:TX:a:t=aeol. tr. (g moll.)	!
1ryy	.
2ryy	.
{4b-/	Es
4a	iſt
=2	=2
2g	ein
2dd	ſehr
(4.cc	mäch-
8dd)	.
2ee-/	-tiger
=3	=3
1dd	Held,
2r}	.
{4b-/	Sankt
4a	Ge-
=4	=4
2g	-org,
2dd	den
4.cc	ich
8dd	mit
4ee-	namen
4ee-	.
=5	=5
1dd	meld,
2dd}	dem
{4ee	ʒu
4ff	.
=6	=6
2gg	e-
4dd	-ren
4dd	ein
(4.cc	lied-
8b-)	.
(4cc	-lein
4dd)	.
=7	=7
1b-	ſchon,
2r}	.
{4ff	dieweil
4ff	.
=8	=8
2gg	es
(4.dd	vns
8cc	.
4b-)	.
4b-	al-
4cc	-ſo
4cc	ge-
=9	=9
1dd	-felt,
2r}	.
{4b-/	ſin-
4a	-gen
=10	=10
4g	wir
4a	als
2b-	da-
4cc	-ʒu
4a	beſtelt,
2g	.
=11	=11
4dd	dann
4dd	er
2cc	iſt
(8gL	vn-
8a	.
8b-	.
8ccJ)	.
4a	-ſer
4a	pa-
=12	=12
0g}	-tron.
==	==
!!!GTL: Geistliche Volkslieder
!!!AGN: Romanze, Ballade, Lied, religioeses Lied
!! WK II No. 1235 (nach Altkoelnischer Volksgesang Gsgb 1625)
!!!ONB: ESAC (Essen Associative Code) Database: ALTDEU
!!!AMT: simple quadruple
!!!AIN: vox
!!!EED: Helmut Schaffrath
!!!EEV: 1.0
!!!RDF**kern: l = terminal long
!!!AMD: Aeolian
!!!URL-scan: https://rosdok.uni-rostock.de/mcrviewer/recordIdentifier/rosdok_ppn738218359/iview2/phys_0796.iview2?x=-1021.1722681204792&y=1490.1729337843135&scale=0.35534665417946304&rotation=0&layout=singlePageLayout&logicalDiv=log_0007
!!!ENC: Anna Maria Matuszewska
!!!EEV: 2024/25/03
*-	*-
